X:1
T:J'endure tout cest bien
T:Clément Janequin
T:Source : Livre V de 25 chansons nouvelles à 4 parties---Paris---N.du Chemin---1550. Editor : André Vierendeels (05/03/18). Notes : Original clefs : G2, C2, C3, F3 Original note values have been halved Edittorial accidentals above the stave Dotted brackets indicate black notes
T:J'endure tout cest bien
T:#
T:©
T:©
T:©
T:©
T:©
T:©
C:Clément Janequin
Z:©
%%score [ 1 2 [ 3 4 ] ]
L:1/8
Q:1/4=120
M:2/2
K:F
V:1 treble nm="Soprano" snm="S"
V:2 treble nm="Alto" snm="A"
V:3 treble-8 nm="Tenor 1" snm="T 1"
V:4 treble-8 nm="Tenor 2" snm="T 2"
V:1
 A4 dcde | f2 f2 e2 f2- | f2 d4 c2 | d2 f2 e2 e2 | e2 e2 d2 c2 | f3 e dcBA | B4 A2 B2 | %7
w: J'en- du- * * *|re tout cest bien|_ rai- *|son, puis- qu'ain- si|plaist à ma mi-|gnon- * * * * *|* * ne,|
 d2 d2 d2 B2 | c2 G2 A4 | A2 A2 dcde | f2 f2 e2 f2- | f2 d4 c2 | d2 f2 e2 e2 | e2 e2 d2 c2 | %14
w: puis- qu'ain- si plaist|à ma mi-|gnon- n'en tout _ _ _|_ lieu, en tou|_ te sai-|son, à luy com-|plai- re ie m'ad-|
 f3 e dcBA | B4 A2 B2 | d2 d2 d2 B2 | c2 G2 A2 AA | d2 d2 d2 d2 | d2 d2 c3 B/A/ | B4 A4 |: %21
w: don- * * * * *|* ne, à|luy com- plai- re|ie m'ad- don- ne, à|luy com- plai- re|ie m'ad- don- * *|* ne,|
 B2 B2 B2 G2- | G2 B2 A2 A2 | G4 F2 f2 | f2 f2 f2 e2- | ed d4 c2 | d3 c/B/ A4 | B2 B2 B2 G2- | %28
w: et si aul- cun|_ est qui s'es-|ton- ne, ain-|si die à bon|_ _ es- *|cient, _ _ _|ai- me aul- tant|
 G2 B2 A2 A2 | G4 F2 f2 | f2 f2 f2 d2 | d2 d2 c2 c2 | B3 B A2 B2 | B2 B2 B2 A2 | AG G4 F2 |1 %35
w: _ cest oeil luy|don- ne, si|com- me moy, si|com- me moy n'est|pa- ti- ent, si|com- me moy n'est|_ _ pa- ti-|
 G4 z4 :|2 AG G4 F2 || G8 |] %38
w: ent,|* * pa- ti-|ent.|
V:2
 F4 B2 B2 | AGAB c2 A2 | A4 A4 | A2 A2 c2 c2 | c2 c2 A2 A2 | A4 F2 G2 | G2 G2 F2 G2 | %7
w: J'en- du- re|tout _ _ _ _ cest|bien rai-|son, puis- qu'ain- si|plaist à ma mi-|gnon- ne, puis-|qu'ain- si plaist à|
 AGFE D3 E/F/ | G2 D2 E4 | F2 F2 B2 B2 | AGAB c2 A2 | A4 A4 | A2 A2 c2 c2 | c2 c2 A2 A2 | %14
w: ma _ _ _ _ _ _|_ mi- gnon-|ne en tout lieu,|en _ _ _ _ tou-|te sai-|son, à luy com-|plai- re ie m'ad-|
 A4 F2 G2 | G2 G2 F2 G2 | AGFE D3 E/F/ | G2 D2 E3 F | GABG A3 G/F/ | A2 B2 G2 G2 | G2 G2 F2 F2 |: %21
w: don- ne, à|luy com- plai- re|ie _ _ _ _ _ _|_ m'ad- don- *||* * * ne,|et si aul- cun|
"^b" D2 D2 E2 B,2- | B,2 F4 F2 | D2 DD D2 D2 | D2 D2 C4 | A,2 A,4 A2 | A2 A2 F2 F2 | %27
w: est qui s'es- ton-|* ne, ain-|si die à bon es-|cient, ai- me|es- cient, à|bon es- cient, ai-|
"^b" D2 D2 E2 B,2 | B,2 F2 F2 F2 | D2 DD D2 D2 | D2 D2 C2 B,2 | A,2 A2 A2 A2 | F2 G2 F2 G2 | %33
w: me aul- tant cest|oeil luy don- ne,|luy don- ne _ _|pa- ti- ent, si|com- me moy nest|pa- * ti- *|
 D2 G2 F3 E | D2 D2 D2 D2 |1 B,2 G2 F2 F2 :|2 D8- || D8 |] %38
w: ent, nest pa- ti-|ent, pa- ti- ent,|et si aul- cun|ent.|_|
V:3
 z4 G4 | d2 d2 c2 d2 | f4 e4 | d2 d2 g2 g2 | g2 g2 f2 e2 | d3 c BAGF | GABc dcde | fedc B2 f2 | %8
w: J'en-|du- re tout cest|bien rai-|son, puis- qu'ain- si|plaist à ma mi-|gnon- * * * * *|||
 e2 d4 c2 | d4 G4 | d2 d2 c2 d2 | f4 e4 | d2 d2 g2 g2 | g2 g2 f2 e2 | d3 c BAGF | GABc dcde | %16
w: |ne, en|tout lieu, en tou-|te sai-|son, à luy com-|plai- re ie m'ad-|don- * * * * *||
 fedc B2 f2 | e2 d3 ccB/A/ | Bcde f3 e/d/ | f2 g2 e4 | d4 d2 d2 |: d2 B2 B2 e2- | e2 d2 c3 B/A/ | %23
w: ||||ne, et si|aul- cun est qui|_ s'es- ton- * *|
 B4 A2 a2 | a2 b2 a2 g2 | f3 e/d/ f2 e2 | d4 d2 d2 |"^b" d2 B2 B2 e2- | e2 d2 c3 B/A/ | B4 A2 a2 | %30
w: * ne, qu'ain-|si die à bon|es- * * * *|cient, ai- me|aul- tant cest oeil|_ luy don- * *|* ne, si|
 a2 b2 a2 g2 | f3 e/d/ f2 e2 | d4 z2 d2 | d2 e2 d2 c2 | B3 A/G/ A2 A2 |1 G4 d2 d2 :|2 %36
w: com- me moy n'est|pa- * * * ti-|ent si|com- me moy n'est|pa- * * * ti-|ent, et si|
 B3 A/G/ A2 A2 || G8 |] %38
w: in- * * * pa-|tient.|
V:4
 z8 | z4 z2 D2- | D2 D2 A4 | D2 d2 c2 c2 | c2 c2 d2 A2 | D4 D2 z2 | z4 z2 G2 | d2 d2 d2 d2 | %8
w: |Cest|_ bien rai-|son, puis- qu'ain- si|plaist à ma mi-|gnon- ne,|puis-|qu'ain- si plaist à|
 c2 B2 A4 | D4 z4 | z4 z2 D2 | D2 D2 A4 | D2 d2 c2 c2 | c2 c2 d2 A2 | D4 D2 z2 | z4 z2 G2 | %16
w: ma mi- gnon-|ne,|en|tou- te sai-|son, à luy com-|plai- re ie m'ad-|don- ne,|à|
 d2 d2 d2 d2 | c2 B2 A4 | G3 F/E/ D2 d2- | d2 B2 c4 | G2 G2 D2 D2 |: B,2 B,2 _E4- |"^b" E2 B,2 F4 | %23
w: luy com- plai- re|ie m'ad- don-|ne, _ _ _ ie|_ m'ad- don-|ne, et si aul-|cun est qui|_ s'es- ton-|
 G4 D4 | D2 D2 F2 C2 | D2 D2 A4 | z2 D2 D2 D2 | B,2 B,2 _E4- | E2 B,2 F4 | G4 D4 | D2 D2 F2 G2 | %31
w: * ne,|qu'ain- si die à|bon es- cient,|ai- me aul-|tant cest oeil|_ luy don-|ne, si|com- me moy n'est|
 D2 D2 A2 A2 | B2 G2 D2 G2 |"^#" G2 G2 B2 F2 | G3 F/E/ D2 D2 |1"^b""^b" E2 E2 D2 D2 :|2 %36
w: pa- ti- ent, n'est|pa- ti- ent, si|com- me moy n'est|pa- * * * ti-|ent, et si aul|
 G3 F/E/ D2 D2 || G8 |] %38
w: in- * * * pa-|tient.|

